images/icon/ice-cream-cone.svg

<svg width="14" height="24" viewBox="0 0 14 24" fill="none" xmlns="http://www.w3.org/2000/svg">
<path d="M7.02589 1.20198C7.90201 1.20176 8.7628 1.42519 9.52203 1.84987C10.2813 2.27455 10.9122 2.88558 11.3518 3.62172C11.7913 4.35787 12.024 5.19329 12.0265 6.04428C12.0289 6.89527 11.8011 7.73195 11.3658 8.47049C11.6678 8.51237 11.9518 8.63509 12.1859 8.82491C12.4201 9.01472 12.5952 9.26412 12.6917 9.54517C12.7881 9.82622 12.8021 10.1278 12.732 10.4161C12.662 10.7045 12.5106 10.9681 12.295 11.1776C12.0793 11.3871 11.8078 11.5341 11.511 11.6022C11.2141 11.6702 10.9036 11.6567 10.6143 11.563C10.325 11.4693 10.0682 11.2992 9.87277 11.0717C9.67735 10.8443 9.55101 10.5684 9.50789 10.2752C9.44602 10.3095 9.38237 10.3421 9.31873 10.3748C9.23031 10.9035 8.95108 11.3845 8.531 11.7316C8.11092 12.0787 7.5774 12.2693 7.02589 12.2693C6.47438 12.2693 5.94087 12.0787 5.52079 11.7316C5.10071 11.3845 4.82148 10.9035 4.73305 10.3748C4.66941 10.3421 4.60577 10.3095 4.5439 10.2752C4.50089 10.5687 4.37449 10.8448 4.1789 11.0725C3.98331 11.3001 3.72627 11.4703 3.43663 11.564C3.14698 11.6576 2.8362 11.671 2.53917 11.6026C2.24214 11.5342 1.97061 11.3867 1.75506 11.1768C1.53952 10.9668 1.38848 10.7026 1.31892 10.4139C1.24935 10.1252 1.26401 9.82339 1.36124 9.54232C1.45847 9.26125 1.63442 9.01206 1.86936 8.82274C2.10429 8.63341 2.3889 8.51143 2.69124 8.47049C2.25619 7.73233 2.02839 6.89612 2.03062 6.04557C2.03285 5.19501 2.26505 4.35995 2.70397 3.62395C3.14288 2.88796 3.77313 2.27685 4.53161 1.8518C5.2901 1.42675 6.15022 1.20267 7.02589 1.20198ZM7.02589 1.15578e-06C6.04427 -0.000587851 5.07637 0.223958 4.20096 0.655363C3.32556 1.08677 2.5674 1.71284 1.98817 2.48264C1.40894 3.25243 1.02502 4.14418 0.867647 5.08533C0.710277 6.02647 0.783906 6.99041 1.08254 7.89869C0.503802 8.34687 0.125357 8.99463 0.0260166 9.70706C-0.0733236 10.4195 0.114098 11.1417 0.549252 11.7233C0.984406 12.3048 1.63375 12.7009 2.36206 12.8291C3.09037 12.9572 3.8415 12.8076 4.45904 12.4112C4.79249 12.7474 5.1923 13.0147 5.63455 13.1973C6.0768 13.3799 6.55241 13.4741 7.03297 13.4741C7.51352 13.4741 7.98913 13.3799 8.43138 13.1973C8.87363 13.0147 9.27343 12.7474 9.60688 12.4112C10.2247 12.7846 10.9652 12.9166 11.6792 12.7804C12.3932 12.6443 13.0275 12.2502 13.4541 11.6777C13.8807 11.1051 14.0679 10.3968 13.9779 9.69543C13.8879 8.9941 13.5275 8.35201 12.9692 7.89869C13.2679 6.99041 13.3415 6.02647 13.1841 5.08533C13.0268 4.14418 12.6428 3.25243 12.0636 2.48264C11.4844 1.71284 10.7262 1.08677 9.85082 0.655363C8.97542 0.223958 8.00752 -0.000587851 7.02589 1.15578e-06Z" fill="#2D3440"/>
<path d="M11.1325 13.5325C10.6457 13.5315 10.1644 13.4333 9.71826 13.244C9.65285 13.2956 9.5839 13.3419 9.51496 13.39L9.60865 13.4793L8.91921 14.149L8.62399 13.8622C8.50201 13.9086 8.37826 13.9498 8.25098 13.9858L8.66818 14.3911L7.98051 15.0607L7.28753 14.3911L7.56154 14.1249C7.38563 14.1467 7.20853 14.1582 7.0312 14.1593C6.85919 14.1589 6.68737 14.148 6.51677 14.1266L6.78901 14.3911L6.09957 15.0607L5.41012 14.3911L5.82379 13.9893C5.69795 13.9543 5.57404 13.913 5.45255 13.8656L5.15556 14.149L4.45904 13.4793L4.54567 13.3951C4.47319 13.3454 4.40247 13.2973 4.33353 13.244C3.88744 13.4333 3.40607 13.5315 2.91929 13.5325C2.88393 13.5325 2.84858 13.5325 2.81322 13.5325C2.79981 13.6261 2.8095 13.7215 2.84151 13.8107L6.44429 23.6188C6.44823 23.6305 6.45296 23.642 6.45843 23.6531C6.46324 23.6651 6.46916 23.6766 6.47611 23.6875C6.48848 23.7115 6.50262 23.7338 6.51677 23.7562L6.53268 23.7785C6.55443 23.8068 6.57869 23.8332 6.60516 23.8575L6.62283 23.8712L6.69178 23.9227L6.7236 23.9399C6.74807 23.9531 6.77348 23.9645 6.79961 23.9742H6.81906L6.88977 23.9914H6.91806C6.98353 24.0029 7.05058 24.0029 7.11605 23.9914H7.1461L7.21505 23.9742H7.2451C7.27051 23.9642 7.29531 23.9527 7.31935 23.9399L7.35117 23.921C7.37598 23.9069 7.39911 23.8902 7.42011 23.8712L7.43956 23.8575C7.46555 23.8328 7.48977 23.8064 7.51204 23.7785L7.52618 23.7562C7.54199 23.7343 7.55617 23.7113 7.56861 23.6875L7.60043 23.6188L11.2103 13.8055C11.2431 13.7165 11.2528 13.6209 11.2386 13.5274C11.2032 13.5274 11.1767 13.5325 11.1325 13.5325ZM8.65758 16.2164L7.96813 16.886L7.28753 16.2164L7.9752 15.5467L8.65758 16.2164ZM6.34352 17.1281L7.03297 16.4585L7.72241 17.1281L7.03297 17.7978L6.34352 17.1281ZM7.72241 18.9534L7.03297 19.6231L6.34352 18.9534L7.03297 18.2838L7.72241 18.9534ZM7.03297 14.6349L7.72241 15.3046L7.03297 15.9691L6.34352 15.2994L7.03297 14.6349ZM6.7837 16.2164L6.09426 16.886L5.40482 16.2164L6.09426 15.5467L6.7837 16.2164ZM4.14791 13.7884L4.21509 13.7231L4.90453 14.3911L4.51031 14.7671L4.14791 13.7884ZM4.63582 15.1329L5.14849 14.6349L5.83616 15.3046L5.15556 15.9691L4.83912 15.6617L4.63582 15.1329ZM5.13611 16.4842L5.15556 16.4653L5.84323 17.135L5.49851 17.4784L5.13611 16.4842ZM5.87329 18.5018L5.62226 17.815L6.08719 17.3651L6.77663 18.0348L6.09426 18.7165L5.87329 18.5018ZM6.47964 20.1537L6.14906 19.2573L6.77663 19.8652L6.47964 20.1537ZM7.01882 21.6235L6.61046 20.5108L7.02589 20.1073L7.43072 20.5005L7.01882 21.6235ZM7.56331 20.1434L7.28753 19.8652L7.89035 19.278L7.56331 20.1434ZM8.17143 18.5241L7.97167 18.7165L7.28753 18.0399L7.9752 17.372L8.42953 17.8115L8.17143 18.5241ZM8.56388 17.4544L8.22977 17.1281L8.91921 16.4585V16.4671L8.56388 17.4544ZM9.21267 15.6875L8.91214 15.9691L8.2227 15.2994L8.91214 14.6297L9.40889 15.1226L9.21267 15.6875ZM9.54501 14.7671L9.1614 14.3928L9.85084 13.7231L9.90741 13.7781L9.54501 14.7671Z" fill="#2D3440"/>
</svg>

<svg width="14" height="24" fill="none" xmlns="http://www.w3.org/2000/svg"><path d="M7.03 1.2a5.11 5.11 0 0 1 4.32 2.42 4.75 4.75 0 0 1 .02 4.85 1.6 1.6 0 0 1 1.33 1.07 1.55 1.55 0 0 1-.4 1.64 1.66 1.66 0 0 1-1.69.38c-.29-.1-.54-.26-.74-.49-.2-.23-.32-.5-.36-.8l-.2.1a2.24 2.24 0 0 1-.78 1.36 2.36 2.36 0 0 1-3 0c-.43-.35-.7-.83-.8-1.36l-.19-.1c-.04.3-.17.57-.36.8a1.65 1.65 0 0 1-1.64.53 1.58 1.58 0 0 1-1.18-2.06c.1-.28.27-.53.5-.72.24-.19.53-.3.83-.35a4.75 4.75 0 0 1 1.84-6.62 5.11 5.11 0 0 1 2.5-.65Zm0-1.2a6.39 6.39 0 0 0-5.04 2.48 5.96 5.96 0 0 0-.9 5.42 2.73 2.73 0 0 0-.53 3.82 2.94 2.94 0 0 0 3.91.69 3.58 3.58 0 0 0 2.56 1.06 3.67 3.67 0 0 0 2.58-1.06 2.95 2.95 0 0 0 3.84-.73 2.73 2.73 0 0 0-.48-3.78 5.89 5.89 0 0 0-.9-5.42A6.2 6.2 0 0 0 7.02 0Z" fill="#2D3440"/><path d="M11.13 13.53c-.48 0-.97-.1-1.41-.29l-.2.15.09.09-.7.67-.29-.29-.37.13.42.4-.69.67-.7-.67.28-.27a4.54 4.54 0 0 1-1.04 0l.27.27-.69.67-.69-.67.41-.4a3.89 3.89 0 0 1-.37-.12l-.3.28-.7-.67.1-.08-.22-.16c-.44.2-.92.3-1.41.3h-.1c-.02.09-.01.18.02.27l3.6 9.8.02.04c0 .02 0 .03.02.04l.04.07.01.02.08.08.01.01.07.05.03.02a.6.6 0 0 0 .08.03h.02l.07.02h.26l.07-.02h.03a.72.72 0 0 0 .07-.03l.03-.02a.39.39 0 0 0 .07-.05l.02-.01a.78.78 0 0 0 .07-.08l.02-.02a.56.56 0 0 0 .04-.07l.03-.07 3.61-9.81a.56.56 0 0 0 .03-.28h-.1Zm-2.47 2.69-.7.67-.67-.67.69-.67.68.67Zm-2.32.9.7-.66.68.67-.69.67-.69-.67Zm1.38 1.83-.69.67-.69-.67.7-.67.68.67Zm-.69-4.32.7.67-.7.67-.69-.67.7-.67Zm-.25 1.59-.69.67-.69-.67.7-.67.68.67Zm-2.63-2.43.07-.07.68.67-.39.38-.36-.98Zm.49 1.34.5-.5.7.67-.68.67-.32-.3-.2-.54Zm.5 1.35.02-.01.68.67-.34.34-.36-1Zm.73 2.02-.25-.68.47-.45.69.66-.69.69-.22-.22Zm.61 1.65-.33-.9.63.62-.3.28Zm.54 1.47-.41-1.1.42-.41.4.39-.41 1.12Zm.54-1.48-.27-.27.6-.6-.33.87Zm.61-1.62-.2.2-.68-.68.69-.67.45.44-.26.71Zm.4-1.07-.34-.32.69-.67-.36 1Zm.64-1.76-.3.28-.69-.67.7-.67.49.5-.2.56Zm.34-.92-.39-.38.7-.67.05.06-.36.99Z" fill="#2D3440"/></svg>
